svg/清除-已读.svg

<svg width="24" height="24" viewBox="0 0 24 24" fill="none" xmlns="http://www.w3.org/2000/svg"><path fill-rule="evenodd" clip-rule="evenodd" d="M10 2.95703H14V6.95705H21.5V10.9571H2.5V6.95705H10V2.95703Z" stroke="#0D131A" stroke-width="1.5" stroke-linecap="round" stroke-linejoin="round"/><path d="M4 20H20V11H4V20Z" stroke="#0D131A" stroke-width="1.5" stroke-linejoin="round"/><path d="M8 19.9488V16.957" stroke="#0D131A" stroke-width="1.5" stroke-linecap="round" stroke-linejoin="round"/><path d="M12 19.9489V16.9489" stroke="#0D131A" stroke-width="1.5" stroke-linecap="round" stroke-linejoin="round"/><path d="M16 19.9488V16.957" stroke="#0D131A" stroke-width="1.5" stroke-linecap="round" stroke-linejoin="round"/><path d="M6 20H18" stroke="#0D131A" stroke-width="1.5" stroke-linecap="round" stroke-linejoin="round"/></svg>

<svg fill="none" viewBox="0 0 24 24"><path stroke="#0D131A" stroke-linecap="round" stroke-linejoin="round" stroke-width="1.5" d="M10 2.957h4v4h7.5v4h-19v-4H10z" clip-rule="evenodd"/><path stroke="#0D131A" stroke-linejoin="round" stroke-width="1.5" d="M4 20h16v-9H4z"/><path stroke="#0D131A" stroke-linecap="round" stroke-linejoin="round" stroke-width="1.5" d="M8 19.949v-2.992"/><path stroke="#0D131A" stroke-linecap="round" stroke-linejoin="round" stroke-width="1.5" d="M12 19.949v-3"/><path stroke="#0D131A" stroke-linecap="round" stroke-linejoin="round" stroke-width="1.5" d="M16 19.949v-2.992"/><path stroke="#0D131A" stroke-linecap="round" stroke-linejoin="round" stroke-width="1.5" d="M6 20h12"/></svg>
